src/main/resources/cards/fronts/clubs_ace.svg

<?xml version="1.0" encoding="UTF-8" standalone="no"?>
<!-- Created with Inkscape (http://www.inkscape.org/) -->

<svg
   xmlns:dc="http://purl.org/dc/elements/1.1/"
   xmlns:cc="http://creativecommons.org/ns#"
   xmlns:rdf="http://www.w3.org/1999/02/22-rdf-syntax-ns#"
   xmlns:svg="http://www.w3.org/2000/svg"
   xmlns="http://www.w3.org/2000/svg"
   xmlns:sodipodi="http://sodipodi.sourceforge.net/DTD/sodipodi-0.dtd"
   xmlns:inkscape="http://www.inkscape.org/namespaces/inkscape"
   width="234"
   height="333.00003"
   id="svg2"
   version="1.1"
   inkscape:version="0.92.4 (5da689c313, 2019-01-14)"
   sodipodi:docname="clubs_ace.svg">
  <title
     id="title896">Ace of Clubs Playing Card</title>
  <defs
     id="defs4" />
  <sodipodi:namedview
     id="base"
     pagecolor="#ffffff"
     bordercolor="#666666"
     borderopacity="1.0"
     inkscape:pageopacity="0.0"
     inkscape:pageshadow="2"
     inkscape:zoom="2.1916676"
     inkscape:cx="120.10775"
     inkscape:cy="167.56128"
     inkscape:document-units="px"
     inkscape:current-layer="layer1"
     showgrid="false"
     inkscape:showpageshadow="false"
     showguides="true"
     inkscape:guide-bbox="true"
     inkscape:snap-global="true"
     inkscape:window-width="1456"
     inkscape:window-height="976"
     inkscape:window-x="117"
     inkscape:window-y="32"
     inkscape:window-maximized="0"
     showborder="false"
     fit-margin-top="0"
     fit-margin-left="0"
     fit-margin-right="0"
     fit-margin-bottom="0">
    <inkscape:grid
       type="xygrid"
       id="grid3767"
       empspacing="5"
       visible="true"
       enabled="true"
       snapvisiblegridlinesonly="true"
       originx="0"
       originy="5.1666068e-06" />
  </sodipodi:namedview>
  <metadata
     id="metadata7">
    <rdf:RDF>
      <cc:Work
         rdf:about="">
        <dc:format>image/svg+xml</dc:format>
        <dc:type
           rdf:resource="http://purl.org/dc/dcmitype/StillImage" />
        <dc:title>Ace of Clubs Playing Card</dc:title>
        <cc:license
           rdf:resource="http://creativecommons.org/publicdomain/zero/1.0/" />
        <dc:date>2020-05-05</dc:date>
        <dc:creator>
          <cc:Agent>
            <dc:title>Daniel S. Fowler</dc:title>
          </cc:Agent>
        </dc:creator>
        <dc:rights>
          <cc:Agent>
            <dc:title>Public Domain</dc:title>
          </cc:Agent>
        </dc:rights>
        <dc:publisher>
          <cc:Agent>
            <dc:title>https://tekeye.uk</dc:title>
          </cc:Agent>
        </dc:publisher>
        <dc:language>en-GB</dc:language>
        <dc:subject>
          <rdf:Bag>
            <rdf:li>ace; clubs; playing; card;</rdf:li>
          </rdf:Bag>
        </dc:subject>
        <dc:description>An ace of clubs playing card in black and white.</dc:description>
      </cc:Work>
      <cc:License
         rdf:about="http://creativecommons.org/publicdomain/zero/1.0/">
        <cc:permits
           rdf:resource="http://creativecommons.org/ns#Reproduction" />
        <cc:permits
           rdf:resource="http://creativecommons.org/ns#Distribution" />
        <cc:permits
           rdf:resource="http://creativecommons.org/ns#DerivativeWorks" />
      </cc:License>
    </rdf:RDF>
  </metadata>
  <g
     inkscape:label="Layer 1"
     inkscape:groupmode="layer"
     id="layer1"
     transform="translate(0,-719.36216)">
    <g
       id="g921">
      <rect
         inkscape:export-ydpi="96"
         inkscape:export-xdpi="96"
         inkscape:export-filename="C:\Users\fowle\OneDrive\Projects\Playing-Cards\fronts\png-096-dpi\clubs_ace.png"
         rx="8.9191856"
         ry="8.9457436"
         y="719.74011"
         x="0.37795275"
         height="332.24411"
         width="233.24409"
         id="rect4266"
         style="fill:#ffffff;fill-opacity:1;stroke:#808080;stroke-width:0.75590551;stroke-linecap:butt;stroke-linejoin:miter;stroke-miterlimit:4;stroke-dasharray:none;stroke-opacity:1" />
      <g
         inkscape:export-ydpi="96"
         inkscape:export-xdpi="96"
         inkscape:export-filename="C:\Users\fowle\OneDrive\Projects\Playing-Cards\fronts\png-096-dpi\clubs_ace.png"
         transform="matrix(0.07348588,0,0,0.07370838,-248.01731,933.60062)"
         id="g4233"
         style="fill:none;stroke:#000000;stroke-width:3.18132639;stroke-opacity:1" />
      <g
         inkscape:export-ydpi="96"
         inkscape:export-xdpi="96"
         inkscape:export-filename="C:\Users\fowle\OneDrive\Projects\Playing-Cards\fronts\png-096-dpi\clubs_ace.png"
         clip-path="none"
         style="fill:none;stroke:#000000;stroke-width:3.18132639;stroke-opacity:1"
         id="g4211"
         transform="matrix(0.07348588,0,0,0.07370838,-248.01728,933.60062)" />
      <g
         inkscape:export-ydpi="96"
         inkscape:export-xdpi="96"
         inkscape:export-filename="C:\Users\fowle\OneDrive\Projects\Playing-Cards\fronts\png-096-dpi\clubs_ace.png"
         transform="matrix(0.07348588,0,0,0.07370838,-248.01731,933.60062)"
         id="g4227"
         style="fill:none;stroke:#000000;stroke-width:3.18132639;stroke-opacity:1" />
      <g
         inkscape:export-ydpi="96"
         inkscape:export-xdpi="96"
         inkscape:export-filename="C:\Users\fowle\OneDrive\Projects\Playing-Cards\fronts\png-096-dpi\clubs_ace.png"
         style="stroke-width:3.18132639"
         transform="matrix(0.01882914,0,0,0.01889089,-28.914567,764.98044)"
         id="g5492-7-8-1">
        <rect
           style="fill:#000000;fill-opacity:1;stroke:none;stroke-width:3.18132639"
           id="rect4124-6-9-7"
           width="85.256371"
           height="295.68549"
           x="2406.7065"
           y="536.54938" />
        <path
           inkscape:connector-curvature="0"
           id="path3979-1-6-1-2-4"
           d="m 2917.8563,395.12877 c 67.135,120.80453 23.601,273.14486 -97.235,340.26188 -120.8361,67.11691 -273.2161,23.5947 -340.3501,-97.20972 -17.88,-32.17311 -28.44,-67.89332 -30.889,-104.57183 -9.342,137.92083 -128.747,242.09126 -266.6621,232.71366 -137.914,-9.37771 -242.111,-128.75233 -232.731,-266.63076 9.38,-137.87843 128.786,-242.04886 266.7,-232.67126 36.206,2.4619 71.4431,12.76531 103.7251,30.22171 -118.1921,-70.88592 -156.8751,-224.529044 -85.9451,-343.145874 70.9301,-118.616826 224.6131,-157.289636 343.2611,-86.378126 118.647,70.911526 157.3301,224.554657 86.4,343.17148 -21.341,35.68961 -51.243,65.49972 -86.812,86.88252 121.024,-66.97031 273.4041,-23.4481 340.5381,97.35632 z"
           style="fill:#000000;fill-opacity:1;stroke:none;stroke-width:3.18132639"
           sodipodi:nodetypes="ssscssscssscs" />
      </g>
      <g
         inkscape:export-ydpi="96"
         inkscape:export-xdpi="96"
         inkscape:export-filename="C:\Users\fowle\OneDrive\Projects\Playing-Cards\fronts\png-096-dpi\clubs_ace.png"
         style="stroke-width:3.18132639"
         transform="matrix(0.01882924,0,0,-0.01889089,171.24295,1006.7439)"
         id="g5492-7-8-8-4">
        <rect
           style="fill:#000000;fill-opacity:1;stroke:none;stroke-width:3.18132639"
           id="rect4124-6-9-8-8"
           width="85.256371"
           height="295.68549"
           x="2406.7065"
           y="536.54938" />
        <path
           inkscape:connector-curvature="0"
           id="path3979-1-6-1-2-2-8"
           d="m 2917.8563,395.12877 c 67.135,120.80453 23.601,273.14486 -97.235,340.26188 -120.8361,67.11691 -273.2161,23.5947 -340.3501,-97.20972 -17.88,-32.17311 -28.44,-67.89332 -30.889,-104.57183 -9.342,137.92083 -128.747,242.09126 -266.6621,232.71366 -137.914,-9.37771 -242.111,-128.75233 -232.731,-266.63076 9.38,-137.87843 128.786,-242.04886 266.7,-232.67126 36.206,2.4619 71.4431,12.76531 103.7251,30.22171 -118.1921,-70.88592 -156.8751,-224.529044 -85.9451,-343.145874 70.9301,-118.616826 224.6131,-157.289636 343.2611,-86.378126 118.647,70.911526 157.3301,224.554657 86.4,343.17148 -21.341,35.68961 -51.243,65.49972 -86.812,86.88252 121.024,-66.97031 273.4041,-23.4481 340.5381,97.35632 z"
           style="fill:#000000;fill-opacity:1;stroke:none;stroke-width:3.18132639"
           sodipodi:nodetypes="ssscssscssscs" />
      </g>
      <g
         inkscape:export-ydpi="96"
         inkscape:export-xdpi="96"
         inkscape:export-filename="C:\Users\fowle\OneDrive\Projects\Playing-Cards\fronts\png-096-dpi\clubs_ace.png"
         style="stroke-width:3.18132639"
         transform="matrix(0.05648742,0,0,0.05667266,-21.360402,867.03374)"
         id="g5492-7-7">
        <rect
           style="fill:#000000;fill-opacity:1;stroke:none;stroke-width:3.18132639"
           id="rect4124-6-6"
           width="85.256371"
           height="295.68549"
           x="2406.7065"
           y="536.54938" />
        <path
           inkscape:connector-curvature="0"
           id="path3979-1-6-1-1"
           d="m 2917.8563,395.12877 c 67.135,120.80453 23.601,273.14486 -97.235,340.26188 -120.8361,67.11691 -273.2161,23.5947 -340.3501,-97.20972 -17.88,-32.17311 -28.44,-67.89332 -30.889,-104.57183 -9.342,137.92083 -128.747,242.09126 -266.6621,232.71366 -137.914,-9.37771 -242.111,-128.75233 -232.731,-266.63076 9.38,-137.87843 128.786,-242.04886 266.7,-232.67126 36.206,2.4619 71.4431,12.76531 103.7251,30.22171 -118.1921,-70.88592 -156.8751,-224.529044 -85.9451,-343.145874 70.9301,-118.616826 224.6131,-157.289636 343.2611,-86.378126 118.647,70.911526 157.3301,224.554657 86.4,343.17148 -21.341,35.68961 -51.243,65.49972 -86.812,86.88252 121.024,-66.97031 273.4041,-23.4481 340.5381,97.35632 z"
           style="fill:#000000;fill-opacity:1;stroke:none;stroke-width:3.18132639"
           sodipodi:nodetypes="ssscssscssscs" />
      </g>
      <g
         id="text3755-0"
         style="font-style:normal;font-variant:normal;font-weight:bold;font-stretch:normal;font-size:3.77201176px;line-height:0%;font-family:'Levenim MT';-inkscape-font-specification:'Sans Bold';letter-spacing:0px;word-spacing:0px;fill:#000000;fill-opacity:1;stroke:none;stroke-width:1"
         transform="scale(0.83054504,1.2040286)"
         aria-label="A">
        <path
           id="path898"
           style="font-size:32.76629639px;line-height:1.25;stroke-width:1"
           d="M 32.051408,627.48846 H 27.39565 l -1.839905,-4.84774 h -9.5995 l -1.919901,4.84774 H 9.3805865 l 9.0715285,-23.53477 h 4.543764 z m -8.175575,-9.21552 -3.119838,-8.07958 -3.135837,8.07958 z" />
      </g>
      <g
         id="text3755-2-2"
         style="font-style:normal;font-variant:normal;font-weight:bold;font-stretch:normal;font-size:3.77201176px;line-height:0%;font-family:'Levenim MT';-inkscape-font-specification:'Sans Bold';letter-spacing:0px;word-spacing:0px;fill:#000000;fill-opacity:1;stroke:none;stroke-width:1"
         transform="scale(-0.8305451,-1.2040285)"
         aria-label="A">
        <path
           id="path901"
           style="font-size:32.76629639px;line-height:1.25;stroke-width:1"
           d="m -249.69128,-844.00842 h -4.65575 l -1.83991,-4.84775 h -9.5995 l -1.9199,4.84775 h -4.65576 l 9.07153,-23.53478 h 4.54376 z m -8.17557,-9.21552 -3.11984,-8.07958 -3.13584,8.07958 z" />
      </g>
    </g>
  </g>
</svg>

<svg width="234" height="333.00003" xmlns="http://www.w3.org/2000/svg">
    <g id="layer1" transform="matrix(1 0 0 1 0 -719.3622)">
        <g id="g921">
            <path id="rect4266" fill="#ffffff" stroke="#808080" stroke-width="0.7559055" d="M 9.297138 719.7401 L 224.70288 719.7401 C 229.6288 719.7401 233.62206 723.74524 233.62206 728.68585 L 233.62206 1043.0385 C 233.62207 1045.411 232.68237 1047.6864 231.0097 1049.3641 C 229.33702 1051.0417 227.06839 1051.9843 224.70288 1051.9843 L 9.297138 1051.9843 C 6.9316134 1051.9843 4.662975 1051.0417 2.9903018 1049.3641 C 1.3176281 1047.6864 0.3779376 1045.411 0.37795275 1043.0385 L 0.37795275 728.68585 C 0.37795484 723.74524 4.3712096 719.7401 9.297138 719.7401 Z"/>
            <g id="g4233" transform="matrix(0.07348588 0 0 0.07370838 -248.0173 933.60065)"/>
            <g id="g4211" transform="matrix(0.07348588 0 0 0.07370838 -248.01726 933.60065)"/>
            <g id="g4227" transform="matrix(0.07348588 0 0 0.07370838 -248.0173 933.60065)"/>
            <g id="g5492-7-8-1" transform="matrix(0.01882914 0 0 0.01889089 -28.914568 764.9804)">
                <path id="rect4124-6-9-7" fill="#000000" stroke="none" d="M 2406.7065 536.5494 L 2491.963 536.5494 L 2491.963 832.23486 L 2406.7065 832.23486 Z"/>
                <path id="path3979-1-6-1-2-4" fill="#000000" stroke="none" d="M 2917.856 395.12878 C 2984.9912 515.9333 2941.4573 668.2736 2820.6213 735.3906 C 2699.7852 802.50757 2547.4053 758.98535 2480.2712 638.1809 C 2462.391 606.0078 2451.8313 570.2876 2449.382 533.6091 C 2440.0403 671.5299 2320.6353 775.7004 2182.7202 766.32275 C 2044.8062 756.94507 1940.6091 637.57043 1949.9891 499.69196 C 1959.3691 361.81357 2078.7751 257.64313 2216.6892 267.02075 C 2252.895 269.48264 2288.132 279.78604 2320.4143 297.24246 C 2202.2222 226.35654 2163.539 72.71341 2234.469 -45.903423 C 2305.3992 -164.52025 2459.0823 -203.19305 2577.7302 -132.28156 C 2696.3772 -61.370026 2735.0603 92.27311 2664.1301 210.88994 C 2642.7893 246.57954 2612.8872 276.38965 2577.318 297.77246 C 2698.3423 230.80214 2850.7222 274.32434 2917.856 395.12878 Z"/>
            </g>
            <g id="g5492-7-8-8-4" transform="matrix(0.01882924 0 0 -0.01889089 171.24295 1006.7439)">
                <path id="rect4124-6-9-8-8" fill="#000000" stroke="none" d="M 2406.7065 536.5494 L 2491.963 536.5494 L 2491.963 832.23486 L 2406.7065 832.23486 Z"/>
                <path id="path3979-1-6-1-2-2-8" fill="#000000" stroke="none" d="M 2917.856 395.12878 C 2984.9912 515.9333 2941.4573 668.2736 2820.6213 735.3906 C 2699.7852 802.50757 2547.4053 758.98535 2480.2712 638.1809 C 2462.391 606.0078 2451.8313 570.2876 2449.382 533.6091 C 2440.0403 671.5299 2320.6353 775.7004 2182.7202 766.32275 C 2044.8062 756.94507 1940.6091 637.57043 1949.9891 499.69196 C 1959.3691 361.81357 2078.7751 257.64313 2216.6892 267.02075 C 2252.895 269.48264 2288.132 279.78604 2320.4143 297.24246 C 2202.2222 226.35654 2163.539 72.71341 2234.469 -45.903423 C 2305.3992 -164.52025 2459.0823 -203.19305 2577.7302 -132.28156 C 2696.3772 -61.370026 2735.0603 92.27311 2664.1301 210.88994 C 2642.7893 246.57954 2612.8872 276.38965 2577.318 297.77246 C 2698.3423 230.80214 2850.7222 274.32434 2917.856 395.12878 Z"/>
            </g>
            <g id="g5492-7-7" transform="matrix(0.05648742 0 0 0.05667266 -21.360401 867.03375)">
                <path id="rect4124-6-6" fill="#000000" stroke="none" d="M 2406.7065 536.5494 L 2491.963 536.5494 L 2491.963 832.23486 L 2406.7065 832.23486 Z"/>
                <path id="path3979-1-6-1-1" fill="#000000" stroke="none" d="M 2917.856 395.12878 C 2984.9912 515.9333 2941.4573 668.2736 2820.6213 735.3906 C 2699.7852 802.50757 2547.4053 758.98535 2480.2712 638.1809 C 2462.391 606.0078 2451.8313 570.2876 2449.382 533.6091 C 2440.0403 671.5299 2320.6353 775.7004 2182.7202 766.32275 C 2044.8062 756.94507 1940.6091 637.57043 1949.9891 499.69196 C 1959.3691 361.81357 2078.7751 257.64313 2216.6892 267.02075 C 2252.895 269.48264 2288.132 279.78604 2320.4143 297.24246 C 2202.2222 226.35654 2163.539 72.71341 2234.469 -45.903423 C 2305.3992 -164.52025 2459.0823 -203.19305 2577.7302 -132.28156 C 2696.3772 -61.370026 2735.0603 92.27311 2664.1301 210.88994 C 2642.7893 246.57954 2612.8872 276.38965 2577.318 297.77246 C 2698.3423 230.80214 2850.7222 274.32434 2917.856 395.12878 Z"/>
            </g>
            <g id="text3755-0" transform="matrix(0.83054507 0 0 1.2040286 0 0)">
                <path id="path898" fill="#000000" stroke="none" d="M 32.051407 627.48846 L 27.39565 627.48846 L 25.555746 622.64075 L 15.956245 622.64075 L 14.036343 627.48846 L 9.380587 627.48846 L 18.452114 603.9537 L 22.995878 603.9537 Z M 23.875832 618.27295 L 20.755995 610.19336 L 17.620157 618.27295 Z"/>
            </g>
            <g id="text3755-2-2" transform="matrix(-0.8305451 0 0 -1.2040285 0 0)">
                <path id="path901" fill="#000000" stroke="none" d="M -249.69128 -844.0084 L -254.34705 -844.0084 L -256.18695 -848.8561 L -265.78644 -848.8561 L -267.70633 -844.0084 L -272.3621 -844.0084 L -263.29056 -867.5432 L -258.7468 -867.5432 Z M -257.86685 -853.22394 L -260.9867 -861.3035 L -264.12253 -853.22394 Z"/>
            </g>
        </g>
    </g>
</svg>
